X:1
T: The Road to Lurgan
C:
R:Jig
Q:180
K:G
M:6/8
L:1/16
|:D2|G6 B4G2|c4A2 B4G2|G2B2d2 c2A2G2|F6 D2E2F2|
G2A2G2 B4G2|c4A2 B2A2G2|d2e2d2 c2A2F2|1G6 G4D2:|2G6 G4c2|
|:B2A2G2 A2F2D2|D2E2D2 F2E2D2|B2A2G2 A2F2D2|F6 A2B2c2|
B2A2G2 A2F2D2|D2E2D2 F2E2D2|Bcd2B2 c2A2F2|1G6 G4c2:|2G6G4||
